build/img/icon-bus.svg

<svg width="56" height="33" viewBox="0 0 56 33" fill="none" xmlns="http://www.w3.org/2000/svg">
<g opacity="0.9">
<path d="M52.4999 2.22541e-07H3.50005C1.56977 2.22541e-07 0 1.5865 0 3.53552V23.5706C0 25.5214 1.56967 27.1062 3.50005 27.1062H4.66645C4.66645 30.3552 7.28372 33 10.5001 33C13.7164 33 16.3337 30.3552 16.3337 27.1062H37.3344C37.3344 30.3552 39.9492 33 43.1655 33C46.3818 33 49 30.3552 49 27.1062H52.5001C54.4311 27.1062 56 25.5214 56 23.5706V15.3213V5.8929V3.53552C55.9999 1.5865 54.431 2.22541e-07 52.4999 2.22541e-07ZM42 7.07114H53.6654V14.1423H42V7.07114ZM3.50005 24.748C2.85659 24.748 2.33366 24.2197 2.33366 23.5706H5.83623C5.56618 23.9331 5.33802 24.3284 5.15514 24.748H3.50005ZM10.5001 30.6418C8.56977 30.6418 7 29.057 7 27.1062C7 25.1554 8.56977 23.5706 10.5001 23.5706C12.4303 23.5706 14.0001 25.1554 14.0001 27.1062C14.0001 29.057 12.4303 30.6418 10.5001 30.6418ZM15.8449 24.748C14.9425 22.6694 12.8874 21.2124 10.5001 21.2124H2.33366V3.53552C2.33366 2.8864 2.85659 2.35727 3.50005 2.35727H52.4999C53.1425 2.35727 53.6654 2.8864 53.6654 3.53552V4.71465H40.8344H34.9998H33.8344H32.6654H28H25.6664H21H19.8336H18.6663H5.83372C5.18938 4.71465 4.66645 5.24201 4.66645 5.8929V15.3213C4.66645 15.9722 5.18938 16.4996 5.83372 16.4996H18.6664V24.748H15.8449ZM34.9999 14.1423V7.07114H39.6655V14.1423H34.9999ZM7 14.1423V7.07114H11.6664V14.1423H7ZM14 7.07114H18.6663V14.1423H14V7.07114ZM21 7.07114H25.6664V14.1423H21V7.07114ZM32.6655 14.1423H28V7.07114H32.6655V14.1423ZM21 16.4996H25.6664V24.748H21V16.4996ZM28 16.4996H32.6655V24.748H28V16.4996ZM43.1654 30.6418C41.2378 30.6418 39.6655 29.057 39.6655 27.1062C39.6655 25.1554 41.2378 23.5706 43.1654 23.5706C45.0965 23.5706 46.6654 25.1554 46.6654 27.1062C46.6654 29.057 45.0966 30.6418 43.1654 30.6418ZM52.4999 24.748H48.5111C47.6087 22.6694 45.5545 21.2124 43.1654 21.2124C40.7797 21.2124 38.7238 22.6696 37.8215 24.748H34.9999V16.4996H40.8345H53.6655V18.8578H51.3344C50.6884 18.8578 50.1654 19.3844 50.1654 20.0351C50.1654 20.686 50.6883 21.2124 51.3344 21.2124H53.6655V23.5706C53.6654 24.2197 53.1425 24.748 52.4999 24.748Z" fill="white"/>
<path d="M9.67523 26.2743C9.21902 26.7335 9.21902 27.4793 9.67523 27.9385C10.1307 28.4012 10.869 28.4012 11.3244 27.9385C11.7807 27.4793 11.7807 26.7335 11.3244 26.2743C10.869 25.8116 10.1307 25.8116 9.67523 26.2743Z" fill="white"/>
<path d="M42.3413 26.2743C41.8869 26.7335 41.8869 27.4793 42.3413 27.9385C42.7959 28.4012 43.5359 28.4012 43.9923 27.9385C44.4468 27.4793 44.4468 26.7335 43.9923 26.2743C43.5359 25.8116 42.7959 25.8116 42.3413 26.2743Z" fill="white"/>
</g>
</svg>

<svg width="56" height="33" fill="none" xmlns="http://www.w3.org/2000/svg"><g opacity=".9" fill="#fff"><path d="M52.5 0h-49C1.57 0 0 1.587 0 3.536V23.57c0 1.95 1.57 3.535 3.5 3.535h1.166C4.666 30.356 7.284 33 10.5 33c3.216 0 5.834-2.645 5.834-5.894h21c0 3.25 2.615 5.894 5.831 5.894C46.383 33 49 30.355 49 27.106h3.5c1.931 0 3.5-1.585 3.5-3.535V3.536C56 1.586 54.431 0 52.5 0zM42 7.071h11.665v7.071H42v-7.07zM3.5 24.748a1.173 1.173 0 01-1.166-1.177h3.502c-.27.362-.498.757-.68 1.177H3.5zm7 5.894c-1.93 0-3.5-1.585-3.5-3.536 0-1.95 1.57-3.535 3.5-3.535s3.5 1.584 3.5 3.535-1.57 3.536-3.5 3.536zm5.345-5.894c-.902-2.079-2.958-3.536-5.345-3.536H2.334V3.536c0-.65.523-1.179 1.166-1.179h49c.642 0 1.165.53 1.165 1.179v1.179H5.834c-.645 0-1.168.527-1.168 1.178v9.428c0 .651.523 1.179 1.168 1.179h12.832v8.248h-2.821zM35 14.142v-7.07h4.666v7.07H35zm-28 0v-7.07h4.666v7.07H7zm7-7.07h4.666v7.07H14v-7.07zm7 0h4.666v7.07H21v-7.07zm11.666 7.07H28v-7.07h4.666v7.07zM21 16.5h4.666v8.248H21V16.5zm7 0h4.666v8.248H28V16.5zm15.165 14.142c-1.927 0-3.5-1.585-3.5-3.536 0-1.95 1.573-3.535 3.5-3.535 1.931 0 3.5 1.584 3.5 3.535s-1.568 3.536-3.5 3.536zm9.335-5.894h-3.99c-.902-2.079-2.957-3.536-5.346-3.536-2.385 0-4.441 1.458-5.343 3.536H35V16.5h18.665v2.358h-2.33c-.647 0-1.17.526-1.17 1.177s.523 1.177 1.17 1.177h2.33v2.359c0 .649-.523 1.177-1.165 1.177z"/><path d="M9.675 26.274a1.183 1.183 0 000 1.665 1.153 1.153 0 001.65 0 1.183 1.183 0 000-1.665 1.153 1.153 0 00-1.65 0zm32.666 0a1.186 1.186 0 000 1.665 1.155 1.155 0 001.651 0 1.186 1.186 0 000-1.665 1.155 1.155 0 00-1.65 0z"/></g></svg>
